X: 64
T:Ook Pik - Violin 1
M:3/4
L:1/8
Q:130
C:Traditional Northwestern
R:Waltz
K:G
D2|:"G"G3 F GB|"D"A2F2D2|"G"(G4-GA)|G4 d2|"Em"e3 d ef|e2 d2 B2|"G"(d4-de
)|d4 d2|"Em"e3 d ef|!
e2 d2 BA|"G"B3-d B-A|"Em"GF E2 B,2|"C"C2E2AB|"D"A2 F2 D2|"G"(G4-GA)|[1"G
"G4D2:|[2"G"G3 G Bd||!
"Em"e2 B3-B|B2 A2 GB|"G"d2 B2-A2|B6|"Am"A4-AA|B2A2G2|"Em"E2D2B,D|E4Bd|"E
m"e2 B3-B|!
B2 A2 GB|"G"d2 B2-A2|B6|"Am" A4-AA|B2A2G2|"Em"E2D2B,D|E4D2|]
